X:35
T:Miss Kelly's Fancy
R:reel
S:Mickey Doherty
Z:Larry Sanger
M:C|
K:D
GBBA BEEc|BEBd AGFD|GBBA BEEf|gafg edBA:|
Bee^d egfe|(3ddd fd adfd|g2{a}gf gbag|fagf edBA:|
G~B3 G~B3|G~B3 AGFD|G~B3 GBEf|gafg edBA:|
Bee^d egfe|(3ddd fd adfd|g2{a}gf gbag|fagf edBA|
Bbbb Baaa|Bgge dBAd:|
